X: 138
T: Cantantibus organis – Allegretto
C: Franciszek Walczyński
%%abc-version 2.0
%%abcx-abcm2ps-target-version 5.9.1 (29 Sep 2008)
%%abc-creator hum2abc beta
%%abcx-conversion-date 2021/10/04 07:38:42
%%abc-edited-by Kamil Watkowski
%%abcx-initial-encoding-date 2021-08-09
%%humdrum-veritas 2009750857
%%humdrum-veritas-data 272609846
%%linebreak <none>
%%barnumbers 0
L: 1/4
M: 3/4
N: Derived from pl-kozmzk--mzk-m-346--040_walczynski-franciszek--cantantibus-organis-allegretto.krn
%%staves {1 2}
V: 1 clef=treble
V: 2 clef=bass
K: Bb
[V:1] B/>A/BF & B/>A/BF | 
[V:2] B,/>A,/B,F, & B,/>A,/B,F, | 
[V:1] d2B & F3 | 
[V:2] B,3- & B,,2D, | 
[V:1] G2A & E3 | 
[V:2] B,2A, & E,2F, | 
[V:1] B2F & D3 | 
[V:2] B,3 & B,,3 | 
[V:1] Bc/B/A/B/ & D3 | 
[V:2] B,3- & _A,3 | 
[V:1] e3 & E3 | 
[V:2] B,3- & G,2_G, | 
[V:1] dc2 & F2G | 
[V:2] B,=A,G, & F,E,2 | 
[V:1] d3 & ^F3 | 
[V:2] A,3 & D,3 | 
[V:1] d/>^c/dA & z3 | 
[V:2] z3 & z3 | 
[V:1] ^f>=e d/^c/ & D/^C/D/=E/^F/A/ | 
[V:2] z3 & z3 | 
[V:1] =B/>^A/B/d/^c/B/ & G/>F/G/B/A/G/ | 
[V:2] z3 & z3 | 
[V:1] A2F & ^F2D | 
[V:2] z3 & z3 | 
[V:1] _B/>A/G=F/G/ & D3- | 
[V:2] G,3 & G,,/>A,,/B,,2 | 
[V:1] A2F & D3- | 
[V:2] F,2A, & A,,3- | 
[V:1] =E3 & D2^C | 
[V:2] G,B,A,/G,/ & A,,3 | 
[V:1] D3 & D3 | 
[V:2] F,3 & D,3 | 
[V:1] _E3- & DCB, | 
[V:2] F,3- & C,3- | 
[V:1] !fermata!E3 & A,3 | 
[V:2] F,3 & !fermata!C,3 | 
[V:1] B/>A/BF & D/>E/D2 | 
[V:2] F,2B, & B,,/>C,/B,,2 | 
[V:1] d2B & F2G | 
[V:2] A,2D & D,2G,, | 
[V:1] GFA & E3 | 
[V:2] C3 & B,,A,,F,, | 
[V:1] B2F & D3 | 
[V:2] B,3 & B,,3 | 
[V:1] B2=B & D2G- | 
[V:2] B,2D & G,,2F,, | 
[V:1] c2_B & G3- | 
[V:2] C2_D & E,,2=E,, | 
[V:1] A3 & GFE | 
[V:2] EDC & F,,3 | 
[V:1] B3 & F3 | 
[V:2] =D3 & B,,3 | 
[V:1] z3 & z3 | 
[V:2] B,/>A,/B,F, & z3 | 
[V:1] z3 & z3 | 
[V:2] G,D,E, & z3 | 
[V:1] zzF & xxE | 
[V:2] F,2A, & zzF,, | 
[V:1] !fermata!D3 & B,3 |]  
[V:2] F,3 & !fermata!B,,3 |]  


